raw-svg/sign-out.svg

<svg viewBox="0 0 24 24" xmlns="http://www.w3.org/2000/svg"><path d="m9 20.75h-3a2.64 2.64 0 0 1 -2.75-2.53v-12.44a2.64 2.64 0 0 1 2.75-2.53h3a.75.75 0 0 1 0 1.5h-3a1.16 1.16 0 0 0 -1.25 1v12.47a1.16 1.16 0 0 0 1.25 1h3a.75.75 0 0 1 0 1.5z"/><path d="m16 16.75a.74.74 0 0 1 -.53-.22.75.75 0 0 1 0-1.06l3.47-3.47-3.47-3.47a.75.75 0 1 1 1.06-1.06l4 4a.75.75 0 0 1 0 1.06l-4 4a.74.74 0 0 1 -.53.22z"/><path d="m20 12.75h-11a.75.75 0 0 1 0-1.5h11a.75.75 0 0 1 0 1.5z"/></svg>

<svg xmlns="http://www.w3.org/2000/svg" viewBox="0 0 24 24"><g id="sign-out"><path d="M9,20.75H6a2.64,2.64,0,0,1-2.75-2.53V5.78A2.64,2.64,0,0,1,6,3.25H9a.75.75,0,0,1,0,1.5H6a1.16,1.16,0,0,0-1.25,1V18.22a1.16,1.16,0,0,0,1.25,1H9a.75.75,0,0,1,0,1.5Z"/><path d="M16,16.75a.74.74,0,0,1-.53-.22.75.75,0,0,1,0-1.06L18.94,12,15.47,8.53a.75.75,0,1,1,1.06-1.06l4,4a.75.75,0,0,1,0,1.06l-4,4A.74.74,0,0,1,16,16.75Z"/><path d="M20,12.75H9a.75.75,0,0,1,0-1.5H20a.75.75,0,0,1,0,1.5Z"/></g></svg>
